X: 28
T:Tripping up the Stairs
N: page 9
N: heptatonic
N: matches 160
R:jig
O:Ireland
M:6/8
L:1/8
K:D
A | "D" FAA "G" GBB | "D" FAd "Bm"fed | "A" cBc ABc |\
 "D" dfe  d2A |  FAA "G" GBB |
 "D" Fdd fed | "A" cBc ABc | "D" dfe "D" d2  :|\
c | "Bm" dBB    fBB |"D" fgf     fed |
 "A" cAA eAA | efe         edc | "Bm" dBB    fBB |\
 "D"fgf     fed | "A" cBc ABc | "D" dfe "D" d2  :|
